48/places/folder-pictures.svg

<?xml version="1.0" encoding="UTF-8" standalone="no"?>
<!-- Created with Inkscape (http://www.inkscape.org/) -->

<svg
   xmlns:dc="http://purl.org/dc/elements/1.1/"
   xmlns:cc="http://creativecommons.org/ns#"
   xmlns:rdf="http://www.w3.org/1999/02/22-rdf-syntax-ns#"
   xmlns:svg="http://www.w3.org/2000/svg"
   xmlns="http://www.w3.org/2000/svg"
   xmlns:xlink="http://www.w3.org/1999/xlink"
   xmlns:sodipodi="http://sodipodi.sourceforge.net/DTD/sodipodi-0.dtd"
   xmlns:inkscape="http://www.inkscape.org/namespaces/inkscape"
   width="48"
   height="48"
   viewBox="0 0 12.7 12.7"
   version="1.1"
   id="svg2634"
   inkscape:version="0.92.4 5da689c313, 2019-01-14"
   sodipodi:docname="folder-pictures.svg">
  <title
     id="title3250">Boston Icons</title>
  <defs
     id="defs2628">
    <linearGradient
       inkscape:collect="always"
       xlink:href="#linearGradient1027"
       id="linearGradient1029"
       x1="99.48333"
       y1="170"
       x2="99.48333"
       y2="155.18333"
       gradientUnits="userSpaceOnUse"
       gradientTransform="matrix(0.37931048,0,0,0.37931048,51.164931,106.39309)" />
    <linearGradient
       inkscape:collect="always"
       id="linearGradient1027">
      <stop
         style="stop-color:#2d8cff;stop-opacity:1"
         offset="0"
         id="stop1023" />
      <stop
         style="stop-color:#2d8cff;stop-opacity:0"
         offset="1"
         id="stop1025" />
    </linearGradient>
  </defs>
  <sodipodi:namedview
     id="base"
     pagecolor="#ffffff"
     bordercolor="#00ffed"
     borderopacity="1"
     inkscape:pageopacity="1"
     inkscape:pageshadow="2"
     inkscape:zoom="15.839192"
     inkscape:cx="26.912699"
     inkscape:cy="17.33975"
     inkscape:document-units="px"
     inkscape:current-layer="layer1"
     showgrid="false"
     showguides="false"
     inkscape:guide-bbox="true"
     fit-margin-top="0"
     fit-margin-left="0"
     fit-margin-right="0"
     fit-margin-bottom="0"
     inkscape:window-width="1920"
     inkscape:window-height="1016"
     inkscape:window-x="0"
     inkscape:window-y="27"
     inkscape:window-maximized="1"
     units="px">
    <inkscape:grid
       type="xygrid"
       id="grid3182"
       spacingx="0.26458333"
       spacingy="0.26458333"
       empspacing="4"
       originx="-82.550004"
       originy="-127.00001"
       dotted="false" />
    <sodipodi:guide
       position="-4.268358e-06,27.516666"
       orientation="1,0"
       id="guide3216"
       inkscape:locked="false" />
    <sodipodi:guide
       position="32.279157,-4.1479283e-06"
       orientation="0,1"
       id="guide3222"
       inkscape:locked="false" />
    <sodipodi:guide
       position="13.229163,0.52915746"
       orientation="0,1"
       id="guide3226"
       inkscape:locked="false" />
    <sodipodi:guide
       position="0.52916318,6.8791574"
       orientation="1,0"
       id="guide3228"
       inkscape:locked="false" />
    <sodipodi:guide
       position="1.0583298,6.8791574"
       orientation="1,0"
       id="guide3234"
       inkscape:locked="false" />
    <sodipodi:guide
       position="1.5874965,6.8791574"
       orientation="1,0"
       id="guide3236"
       inkscape:locked="false" />
    <sodipodi:guide
       position="6.3499965,7.9374908"
       orientation="1,0"
       id="guide3238"
       inkscape:locked="false" />
    <sodipodi:guide
       position="13.75833,1.0583241"
       orientation="0,1"
       id="guide3246"
       inkscape:locked="false" />
    <sodipodi:guide
       position="5.2916632,10.054157"
       orientation="0,1"
       id="guide862"
       inkscape:locked="false" />
    <sodipodi:guide
       position="5.8208298,12.170824"
       orientation="0,1"
       id="guide864"
       inkscape:locked="false" />
    <sodipodi:guide
       position="6.8791632,11.641657"
       orientation="0,1"
       id="guide866"
       inkscape:locked="false" />
    <sodipodi:guide
       position="12.17083,8.4666574"
       orientation="1,0"
       id="guide868"
       inkscape:locked="false" />
    <sodipodi:guide
       position="11.641663,8.4666574"
       orientation="1,0"
       id="guide870"
       inkscape:locked="false" />
    <sodipodi:guide
       position="11.112496,8.4666574"
       orientation="1,0"
       id="guide872"
       inkscape:locked="false" />
    <sodipodi:guide
       position="3.4395782,6.879155"
       orientation="1,0"
       id="guide931"
       inkscape:locked="false" />
    <sodipodi:guide
       position="9.2604115,5.8208217"
       orientation="1,0"
       id="guide933"
       inkscape:locked="false" />
  </sodipodi:namedview>
  <metadata
     id="metadata2631">
    <rdf:RDF>
      <cc:Work
         rdf:about="">
        <dc:format>image/svg+xml</dc:format>
        <dc:type
           rdf:resource="http://purl.org/dc/dcmitype/StillImage" />
        <dc:title>Boston Icons</dc:title>
        <cc:license
           rdf:resource="dribbble.com/chrisdiaz" />
        <dc:creator>
          <cc:Agent>
            <dc:title>Christian Díaz</dc:title>
          </cc:Agent>
        </dc:creator>
        <dc:date>2019</dc:date>
        <dc:publisher>
          <cc:Agent>
            <dc:title>Christian Díaz</dc:title>
          </cc:Agent>
        </dc:publisher>
        <dc:identifier>christiandiaz.design [at] gmail [dot] com</dc:identifier>
        <dc:subject>
          <rdf:Bag>
            <rdf:li>GNOME icon Theme</rdf:li>
          </rdf:Bag>
        </dc:subject>
        <dc:description>diazchris.deviantart.com | dribbble.com/chrisdiaz</dc:description>
      </cc:Work>
    </rdf:RDF>
  </metadata>
  <g
     inkscape:label="Capa 1"
     inkscape:groupmode="layer"
     id="layer1"
     transform="translate(-82.550003,-157.3)">
    <g
       id="g850">
      <path
         sodipodi:nodetypes="ccccccc"
         inkscape:connector-curvature="0"
         id="path881"
         d="m 83.079166,159.94584 4.762499,1e-5 1.058333,1.05833 h 5.820835 v 8.46666 H 83.079166 Z"
         style="fill:#2d8cff;stroke:none;stroke-width:0.26458332px;stroke-linecap:butt;stroke-linejoin:miter;stroke-opacity:1" />
      <path
         sodipodi:nodetypes="cccccc"
         inkscape:connector-curvature="0"
         id="path906"
         d="m 83.343748,160.21043 h 4.365627 l 0.793753,0.79375 -0.661463,0.79375 h -4.497917 v -1.5875"
         style="fill:#6fb7ff;stroke:none;stroke-width:0.26458332px;stroke-linecap:butt;stroke-linejoin:miter;stroke-opacity:1" />
      <path
         sodipodi:nodetypes="ccccccc"
         inkscape:connector-curvature="0"
         id="path908"
         d="m 83.079166,162.06251 h 4.7625 l 1.058333,-1.05833 h 5.820834 v 8.46666 H 83.079166 Z"
         style="fill:#2d8cff;fill-opacity:1;stroke:none;stroke-width:0.26458332px;stroke-linecap:butt;stroke-linejoin:miter;stroke-opacity:1" />
      <path
         sodipodi:nodetypes="ccccccc"
         inkscape:connector-curvature="0"
         id="path910"
         d="m 83.343748,162.06251 h 4.64344 l 0.661463,-0.79375 h 5.807597 v 7.9375 h -11.1125 z"
         style="fill:#6fb7ff;fill-opacity:1;stroke:none;stroke-width:0.26458332px;stroke-linecap:butt;stroke-linejoin:miter;stroke-opacity:1" />
      <rect
         y="165.25575"
         x="83.079163"
         height="4.2150879"
         width="11.641671"
         id="rect1005"
         style="opacity:0.3;fill:url(#linearGradient1029);fill-opacity:1;stroke:none;stroke-width:0.20071845;stroke-linejoin:bevel;stroke-miterlimit:4;stroke-dasharray:none;stroke-opacity:1" />
      <path
         style="opacity:1;fill:#2d8cff;fill-opacity:1;fill-rule:nonzero;stroke:none;stroke-width:0.99999994;stroke-linecap:round;stroke-linejoin:bevel;stroke-miterlimit:4;stroke-dasharray:none;stroke-dashoffset:35;stroke-opacity:1"
         d="m 15,22 v 2 h -2 v 1 14 h 1 21 V 38 25 24 H 20 v -2 h -1 -3 z m 1,1 h 3 v 1 h -3 z m -2,2 H 34 V 38 H 14 Z m 1,1 v 1 h 5 v -1 z m 15,0 v 1 2 h 1 1 1 v -2 -1 z m -4.5,1 A 4.4999996,4.4999996 0 0 0 21,31.5 4.4999996,4.4999996 0 0 0 25.5,36 4.4999996,4.4999996 0 0 0 30,31.5 4.4999996,4.4999996 0 0 0 25.5,27 Z m 5.5,0 h 1 v 1 h -1 z m -5.5,1 A 3.5,3.5 0 0 1 29,31.5 3.5,3.5 0 0 1 25.5,35 3.5,3.5 0 0 1 22,31.5 3.5,3.5 0 0 1 25.5,28 Z m 0,1 A 2.4999999,2.4999999 0 0 0 23,31.5 2.4999999,2.4999999 0 0 0 25.5,34 2.4999999,2.4999999 0 0 0 28,31.5 2.4999999,2.4999999 0 0 0 25.5,29 Z m 0,1 A 1.5,1.5 0 0 1 27,31.5 1.5,1.5 0 0 1 25.5,33 1.5,1.5 0 0 1 24,31.5 1.5,1.5 0 0 1 25.5,30 Z"
         transform="matrix(0.26458333,0,0,0.26458333,82.550003,157.3)"
         id="rect854"
         inkscape:connector-curvature="0" />
    </g>
  </g>
</svg>

<?xml version="1.0" encoding="UTF-8" standalone="no"?>
<!-- Created with Inkscape (http://www.inkscape.org/) -->

<svg
   xmlns:dc="http://purl.org/dc/elements/1.1/"
   xmlns:cc="http://creativecommons.org/ns#"
   xmlns:rdf="http://www.w3.org/1999/02/22-rdf-syntax-ns#"
   xmlns:svg="http://www.w3.org/2000/svg"
   xmlns="http://www.w3.org/2000/svg"
   xmlns:xlink="http://www.w3.org/1999/xlink"
   xmlns:sodipodi="http://sodipodi.sourceforge.net/DTD/sodipodi-0.dtd"
   xmlns:inkscape="http://www.inkscape.org/namespaces/inkscape"
   width="48"
   height="48"
   viewBox="0 0 12.7 12.7"
   version="1.1"
   id="svg2634"
   inkscape:version="0.92.4 5da689c313, 2019-01-14"
   sodipodi:docname="folder-pictures.svg">
  <title
     id="title3250">Boston Icons</title>
  <defs
     id="defs2628">
    <linearGradient
       inkscape:collect="always"
       xlink:href="#linearGradient1027"
       id="linearGradient1029"
       x1="99.48333"
       y1="170"
       x2="99.48333"
       y2="155.18333"
       gradientUnits="userSpaceOnUse"
       gradientTransform="matrix(0.37931048,0,0,0.37931048,51.164931,106.39309)" />
    <linearGradient
       inkscape:collect="always"
       id="linearGradient1027">
      <stop
         style="stop-color:#7fb9ec;stop-opacity:1;"
         offset="0"
         id="stop1023" />
      <stop
         style="stop-color:#7fb9ec;stop-opacity:0;"
         offset="1"
         id="stop1025" />
    </linearGradient>
  </defs>
  <sodipodi:namedview
     id="base"
     pagecolor="#ffffff"
     bordercolor="#00ffed"
     borderopacity="1"
     inkscape:pageopacity="1"
     inkscape:pageshadow="2"
     inkscape:zoom="15.839192"
     inkscape:cx="15.169675"
     inkscape:cy="13.236005"
     inkscape:document-units="px"
     inkscape:current-layer="layer1"
     showgrid="false"
     showguides="false"
     inkscape:guide-bbox="true"
     fit-margin-top="0"
     fit-margin-left="0"
     fit-margin-right="0"
     fit-margin-bottom="0"
     inkscape:window-width="1920"
     inkscape:window-height="1016"
     inkscape:window-x="0"
     inkscape:window-y="27"
     inkscape:window-maximized="1"
     units="px">
    <inkscape:grid
       type="xygrid"
       id="grid3182"
       spacingx="0.26458333"
       spacingy="0.26458333"
       empspacing="4"
       originx="-82.550004"
       originy="-127.00001"
       dotted="false" />
    <sodipodi:guide
       position="-4.268358e-06,27.516666"
       orientation="1,0"
       id="guide3216"
       inkscape:locked="false" />
    <sodipodi:guide
       position="32.279157,-4.1479283e-06"
       orientation="0,1"
       id="guide3222"
       inkscape:locked="false" />
    <sodipodi:guide
       position="13.229163,0.52915746"
       orientation="0,1"
       id="guide3226"
       inkscape:locked="false" />
    <sodipodi:guide
       position="0.52916318,6.8791574"
       orientation="1,0"
       id="guide3228"
       inkscape:locked="false" />
    <sodipodi:guide
       position="1.0583298,6.8791574"
       orientation="1,0"
       id="guide3234"
       inkscape:locked="false" />
    <sodipodi:guide
       position="1.5874965,6.8791574"
       orientation="1,0"
       id="guide3236"
       inkscape:locked="false" />
    <sodipodi:guide
       position="6.3499965,7.9374908"
       orientation="1,0"
       id="guide3238"
       inkscape:locked="false" />
    <sodipodi:guide
       position="13.75833,1.0583241"
       orientation="0,1"
       id="guide3246"
       inkscape:locked="false" />
    <sodipodi:guide
       position="5.2916632,10.054157"
       orientation="0,1"
       id="guide862"
       inkscape:locked="false" />
    <sodipodi:guide
       position="5.8208298,12.170824"
       orientation="0,1"
       id="guide864"
       inkscape:locked="false" />
    <sodipodi:guide
       position="6.8791632,11.641657"
       orientation="0,1"
       id="guide866"
       inkscape:locked="false" />
    <sodipodi:guide
       position="12.17083,8.4666574"
       orientation="1,0"
       id="guide868"
       inkscape:locked="false" />
    <sodipodi:guide
       position="11.641663,8.4666574"
       orientation="1,0"
       id="guide870"
       inkscape:locked="false" />
    <sodipodi:guide
       position="11.112496,8.4666574"
       orientation="1,0"
       id="guide872"
       inkscape:locked="false" />
    <sodipodi:guide
       position="3.4395782,6.879155"
       orientation="1,0"
       id="guide931"
       inkscape:locked="false" />
    <sodipodi:guide
       position="9.2604115,5.8208217"
       orientation="1,0"
       id="guide933"
       inkscape:locked="false" />
  </sodipodi:namedview>
  <metadata
     id="metadata2631">
    <rdf:RDF>
      <cc:Work
         rdf:about="">
        <dc:format>image/svg+xml</dc:format>
        <dc:type
           rdf:resource="http://purl.org/dc/dcmitype/StillImage" />
        <dc:title>Boston Icons</dc:title>
        <cc:license
           rdf:resource="dribbble.com/chrisdiaz" />
        <dc:creator>
          <cc:Agent>
            <dc:title>Christian Díaz</dc:title>
          </cc:Agent>
        </dc:creator>
        <dc:date>2019</dc:date>
        <dc:publisher>
          <cc:Agent>
            <dc:title>Christian Díaz</dc:title>
          </cc:Agent>
        </dc:publisher>
        <dc:identifier>christiandiaz.design [at] gmail [dot] com</dc:identifier>
        <dc:subject>
          <rdf:Bag>
            <rdf:li>GNOME icon Theme</rdf:li>
          </rdf:Bag>
        </dc:subject>
        <dc:description>diazchris.deviantart.com | dribbble.com/chrisdiaz</dc:description>
      </cc:Work>
    </rdf:RDF>
  </metadata>
  <g
     inkscape:label="Capa 1"
     inkscape:groupmode="layer"
     id="layer1"
     transform="translate(-82.550003,-157.3)">
    <g
       id="g850">
      <path
         sodipodi:nodetypes="ccccccc"
         inkscape:connector-curvature="0"
         id="path881"
         d="m 83.079166,159.94584 4.762499,1e-5 1.058333,1.05833 5.820835,0 v 8.46666 H 83.079166 Z"
         style="fill:#7fb9ec;stroke:none;stroke-width:0.26458332px;stroke-linecap:butt;stroke-linejoin:miter;stroke-opacity:1" />
      <path
         sodipodi:nodetypes="cccccc"
         inkscape:connector-curvature="0"
         id="path906"
         d="m 83.343748,160.21043 h 4.365627 l 0.793753,0.79375 -0.661463,0.79375 -4.497917,0 v -1.5875"
         style="fill:#b9d9f7;stroke:none;stroke-width:0.26458332px;stroke-linecap:butt;stroke-linejoin:miter;stroke-opacity:1" />
      <path
         sodipodi:nodetypes="ccccccc"
         inkscape:connector-curvature="0"
         id="path908"
         d="m 83.079166,162.06251 4.7625,0 1.058333,-1.05833 h 5.820834 v 8.46666 H 83.079166 Z"
         style="fill:#7fb9ec;fill-opacity:1;stroke:none;stroke-width:0.26458332px;stroke-linecap:butt;stroke-linejoin:miter;stroke-opacity:1" />
      <path
         sodipodi:nodetypes="ccccccc"
         inkscape:connector-curvature="0"
         id="path910"
         d="m 83.343748,162.06251 h 4.64344 l 0.661463,-0.79375 5.807597,0 v 7.9375 h -11.1125 z"
         style="fill:#b9d9f7;fill-opacity:1;stroke:none;stroke-width:0.26458332px;stroke-linecap:butt;stroke-linejoin:miter;stroke-opacity:1" />
      <rect
         y="165.25575"
         x="83.079163"
         height="4.2150879"
         width="11.641671"
         id="rect1005"
         style="opacity:0.3;fill:url(#linearGradient1029);fill-opacity:1;stroke:none;stroke-width:0.20071845;stroke-linejoin:bevel;stroke-miterlimit:4;stroke-dasharray:none;stroke-opacity:1" />
      <path
         id="rect854"
         transform="matrix(0.26458333,0,0,0.26458333,82.550003,157.3)"
         d="M 15 22 L 15 24 L 13 24 L 13 25 L 13 39 L 14 39 L 35 39 L 35 38 L 35 25 L 35 24 L 20 24 L 20 22 L 19 22 L 16 22 L 15 22 z M 16 23 L 19 23 L 19 24 L 16 24 L 16 23 z M 14 25 L 34 25 L 34 38 L 14 38 L 14 25 z M 15 26 L 15 27 L 20 27 L 20 26 L 15 26 z M 30 26 L 30 27 L 30 29 L 31 29 L 32 29 L 33 29 L 33 27 L 33 26 L 30 26 z M 31 27 L 32 27 L 32 28 L 31 28 L 31 27 z "
         style="opacity:1;fill:#7fb9ec;fill-opacity:1;fill-rule:nonzero;stroke:none;stroke-width:0.99999994;stroke-linecap:round;stroke-linejoin:bevel;stroke-miterlimit:4;stroke-dasharray:none;stroke-dashoffset:35;stroke-opacity:1" />
      <path
         inkscape:connector-curvature="0"
         id="path884"
         d="m 89.296879,164.44376 a 1.1906249,1.1906249 0 0 0 -1.190625,1.19063 1.1906249,1.1906249 0 0 0 1.190625,1.19062 1.1906249,1.1906249 0 0 0 1.190625,-1.19062 1.1906249,1.1906249 0 0 0 -1.190625,-1.19063 z m 0,0.26459 a 0.92604166,0.92604166 0 0 1 0.926041,0.92604 0.92604166,0.92604166 0 0 1 -0.926041,0.92604 0.92604166,0.92604166 0 0 1 -0.926042,-0.92604 0.92604166,0.92604166 0 0 1 0.926042,-0.92604 z"
         style="opacity:1;fill:#7fb9ec;fill-opacity:1;fill-rule:nonzero;stroke:none;stroke-width:0.26458332;stroke-linecap:round;stroke-linejoin:bevel;stroke-miterlimit:4;stroke-dasharray:none;stroke-dashoffset:35;stroke-opacity:1" />
      <path
         inkscape:connector-curvature="0"
         id="path889"
         d="m 89.296879,164.97293 a 0.6614583,0.6614583 0 0 0 -0.661459,0.66146 0.6614583,0.6614583 0 0 0 0.661459,0.66146 0.6614583,0.6614583 0 0 0 0.661458,-0.66146 0.6614583,0.6614583 0 0 0 -0.661458,-0.66146 z m 0,0.26458 a 0.396875,0.396875 0 0 1 0.396875,0.39688 0.396875,0.396875 0 0 1 -0.396875,0.39687 0.396875,0.396875 0 0 1 -0.396875,-0.39687 0.396875,0.396875 0 0 1 0.396875,-0.39688 z"
         style="opacity:1;fill:#7fb9ec;fill-opacity:1;fill-rule:nonzero;stroke:none;stroke-width:0.26458332;stroke-linecap:round;stroke-linejoin:bevel;stroke-miterlimit:4;stroke-dasharray:none;stroke-dashoffset:35;stroke-opacity:1" />
    </g>
  </g>
</svg>
